assets/iconset/arrow_expand_alt2.svg

<?xml version="1.0" encoding="UTF-8" standalone="no"?>
<!-- Generator: IcoMoon.io -->

<svg
   xmlns:dc="http://purl.org/dc/elements/1.1/"
   xmlns:cc="http://creativecommons.org/ns#"
   xmlns:rdf="http://www.w3.org/1999/02/22-rdf-syntax-ns#"
   xmlns:svg="http://www.w3.org/2000/svg"
   xmlns="http://www.w3.org/2000/svg"
   xmlns:sodipodi="http://sodipodi.sourceforge.net/DTD/sodipodi-0.dtd"
   xmlns:inkscape="http://www.inkscape.org/namespaces/inkscape"
   width="32"
   height="32"
   viewBox="0 0 32 32"
   fill="#000000"
   version="1.1"
   id="svg6"
   sodipodi:docname="arrow_expand_alt2.svg"
   inkscape:version="0.92.1 r15371">
  <metadata
     id="metadata12">
    <rdf:RDF>
      <cc:Work
         rdf:about="">
        <dc:format>image/svg+xml</dc:format>
        <dc:type
           rdf:resource="http://purl.org/dc/dcmitype/StillImage" />
      </cc:Work>
    </rdf:RDF>
  </metadata>
  <defs
     id="defs10" />
  <sodipodi:namedview
     pagecolor="#ffffff"
     bordercolor="#666666"
     borderopacity="1"
     objecttolerance="10"
     gridtolerance="10"
     guidetolerance="10"
     inkscape:pageopacity="0"
     inkscape:pageshadow="2"
     inkscape:window-width="1920"
     inkscape:window-height="1016"
     id="namedview8"
     showgrid="false"
     inkscape:zoom="7.375"
     inkscape:cx="16.271186"
     inkscape:cy="16"
     inkscape:window-x="0"
     inkscape:window-y="27"
     inkscape:window-maximized="1"
     inkscape:current-layer="svg6" />
  <g
     id="g4"
     transform="matrix(0.67146812,-0.67146812,0.67146812,0.67146812,-5.4870645,16)">
    <path
       d="m 4,15 c 0,0.552 0.448,1 1,1 0.552,0 1,-0.448 1,-1 V 7.414 L 24.586,26 H 17 c -0.552,0 -1,0.448 -1,1 0,0.552 0.448,1 1,1 h 10 c 0.13,0 0.26,-0.026 0.382,-0.078 0.244,-0.102 0.44,-0.296 0.54,-0.54 C 27.972,27.26 28,27.132 28,27.004 28,27.002 28,27.002 28,27 V 17 c 0,-0.552 -0.448,-1 -1,-1 -0.552,0 -1,0.448 -1,1 v 7.586 L 7.414,6 H 15 C 15.552,6 16,5.552 16,5 16,4.448 15.552,4 15,4 H 5 C 4.87,4 4.74,4.026 4.618,4.078 4.498,4.126 4.392,4.198 4.3,4.288 4.298,4.29 4.296,4.29 4.292,4.292 4.29,4.296 4.288,4.302 4.286,4.304 4.198,4.394 4.126,4.5 4.078,4.618 4.026,4.74 4,4.87 4,5 v 0 z"
       id="path2"
       inkscape:connector-curvature="0" />
  </g>
</svg>

<?xml version="1.0" encoding="utf-8"?> <!-- Generator: IcoMoon.io --> <!DOCTYPE svg PUBLIC "-//W3C//DTD SVG 1.1//EN" "http://www.w3.org/Graphics/SVG/1.1/DTD/svg11.dtd"> <svg width="32" height="32" viewBox="0 0 32 32" xmlns="http://www.w3.org/2000/svg" xmlns:xlink="http://www.w3.org/1999/xlink" fill="#000000"><g><path d="M 4,15C 4,15.552, 4.448,16, 5,16S 6,15.552, 6,15L 6,7.414 L 24.586,26L 17,26 C 16.448,26, 16,26.448, 16,27 C 16,27.552, 16.448,28, 17,28l 10,0 c 0.13,0, 0.26-0.026, 0.382-0.078c 0.244-0.102, 0.44-0.296, 0.54-0.54C 27.972,27.26, 28,27.132, 28,27.004 c0-0.002,0-0.002,0-0.004l0-10 C 28,16.448, 27.552,16, 27,16S 26,16.448, 26,17l0,7.586 L 7.414,6L 15,6 C 15.552,6, 16,5.552, 16,5 C 16,4.448, 15.552,4, 15,4l-10,0 C 4.87,4, 4.74,4.026, 4.618,4.078C 4.498,4.126, 4.392,4.198, 4.3,4.288 C 4.298,4.29, 4.296,4.29, 4.292,4.292C 4.29,4.296, 4.288,4.302, 4.286,4.304C 4.198,4.394, 4.126,4.5, 4.078,4.618 C 4.026,4.74, 4,4.87, 4,5l0,0L 4,15 z"></path></g></svg>
